X: 21286
T: Kelly's
R: polka
M: 2/4
K: Amajor
|:EA Ac|Be c2|eA Ac|B/c/B/A/ FE|
AB/A/ FE|Ac ea|f>{a}f ec|1 BA AF:|2 BA Aa||
|:f2 df|ba af|eA ce|fe cA|
B>{d}B AB|ce f>(f|e)c BA/B/|1 cA ag:|2 cA AF||

